X:1
T:4 Songs, Op. 51
T:Ich sagete nicht
T:/ Silent Love
T:4 Songs, Op. 51
T:Amy Marcy Beach
T:1. Ich sagte nicht Silent Love 
T:Eduard Wissmann English text by Isidora Martinez 
T:OpenScore (CC0)
T:OpenScore (CC0)
T:OpenScore (CC0)
C:Amy Beach
Z:Eduard Wissmann  [under the pseudonym Erwin Wester]
Z:OpenScore (CC0)
%%score ( 1 2 ) { ( 3 4 ) | ( 5 6 ) }
L:1/8
Q:1/4=52
M:4/4
K:C
V:1 treble nm="Voice"
V:2 treble 
V:3 treble nm="Piano"
V:4 treble 
V:5 bass 
V:6 bass 
V:1
"^Lento, ma non troppo" z!pp! c d c B3 A | A3 G G2 z2 | z"^dolce" G A _B e G G A | F6 z2 | %4
w: Ich sag- te nicht: “ich|lie- be Dich,”|Doch ei- ne Ro- se brach ich|scheu,|
w: I dared not say “I|love but thee,”|I on- ly cull’d a rose- bud|fair|
 z!p!!<(! f e d c3!<)! c |!>(! e3 ^F!>)! F2 z F | (^FG) (AB)!<(! B c d3/2!<)! c/ | %7
w: Und bot sie Dir Zur|Bu- sen- zier Und|sah * Dir * in die Au- gen|
w: At thy be- hest, To|deck thy breast, And|si- * lent * gaz’d up- on it|
[Q:1/4=51] (e6[Q:1/4=49] d2) | z8 |[Q:1/4=52]"^.5" z!p! c d c B3 A |!<(! A3 G G2!<)! z"^cresc." G | %11
w: treu. _||Du sag- test nicht: “ich|lie- be Dich”, Doch|
w: there! _||Thou too, of love, wert|si- lent aye; But|
 A G _B2- B A ^c3/2 e/ |!mf! f6 z2 | z f e d!>(! c3 c!>)! |!p! e3 ^F F2 z F | (^FG) (AB) (Bc) d c | %16
w: lä- chelnd gabst _ Du mir die|Hand;|Und ei- nen Kuss Zum|Ue- ber- fluss Als|se- * lig * mach- * en- des|
w: smil- ing laid’st _ thy hand in|mine;|Then soft a kiss As|pledge of bliss, A|seal * set * on _ _ our|
 (f4 e3) d | c4!mp! z4 | z8 | z8 | z2!p! B2!>(! B3 B!>)! |"^tranquillo" B4 z2!pp! ^c2 | %22
w: Un- * ter-|pfand!|||Wir sag- ten|nicht: “Ich|
w: joy _ di-|vine!|||Our lips of|love ne’er|
"^espressivo" ^c3 B B3 z | z!mp!"^cresc. e appassionato" B ^c =d _e2 _B2 | _e3 c!f! g4 | %25
w: lie- be Dich,”|Doch un- s’re Herz- en|rie- fen’s laut,|
w: spoke a word,|Yet sang each throb- bing|pulse the song,|
 z!ff! _a g f!>(! _e3"^molto rit." e!>)![Q:1/4=48] |!pp![Q:1/4=45] =e3 ^F F4 | %27
w: Als lenz- um- lauscht Und|duft- be- rauscht|
w: When ’neath the veil Of|moon- light pale,|
!pp![Q:1/4=52]"^.5" z2 ^F2 G3 ^G | (A4 B2) c2 |"^dolcissimo" (^c4 d4- | d4) e4 | e8- | e8- | %33
w: Wir still und|träu- mend uns|an- *|* ge-|schaut.|_|
w: Our dream- y|eyes _ gaz’d|deep _|_ and|long.|_|
 e2 z2 z4 | z8 | !fermata!z8 |] %36
w: |||
w: |||
V:2
 x8 | x8 | x8 | x8 | x8 | x8 | x8 | x4"^poco rall."!>(! x4!>)! | x8 | x8 | x8 | x8 | x8 | x8 | x8 | %15
 x4 (Bcd) c | x2!>(! x2 x4 | x4!>)! x4 | x8 | x8 | x8 | x8 | x8 | x8 | x8 | x8 | x8 | x8 | x8 | %29
 x8 | x8 | x4!>(! x4 | x8 | x2!>)! x6 | x8 | x8 |] %36
V:3
!pp! (G4 B3 A | [Fc-]4 [Fc]BAG | G4-) G2 [GA-]2 |"_dolce marcato" A(A^cd fA)(AB | %4
 (^G4-)!<(! GABA)!<)! |!>(! ([E^Fc]4 [DB]2!>)! [CA]2) | (A2 E2!<(! G2 ^F2)!<)! | %7
 [C=FA]2!>(! (A"_poco rall."B c^cd!>)!e) |!pp! ([FAcf]3 [Gg]) ([Adfa]2 [Bdb]2) |!pp! [cg]4 (b3 a) | %10
 ([cfc']4-!<(! [cfc'][Bb][Aa][Gg])!<)! | [dgd']2"_cresc." (dg-) [G^cg]2 ([G_Bc]g) | %12
!mf! [Fdf] [fa]3 x4 | ([F^G]2 ed!>(! c4)!>)! |!pp! ([E^Fc]4 [DB]2 [CA]2) | (A2 E2!<(! G2 ^F2)!<)! | %16
 [C=FA]2!>(! (AB c^ced)!>)! |"_espressivo"!mp! ([ec'e']4!<(! [dbd']3 [cac'])!<)! | %18
!mf! (([G-ce-g-]4 [GBeg])[Aa][^A^a][Bb] | [E-Be-]3)"_dim." [E-Ae-] [Ece]([Aa][Bb][cc']) | %20
!>(! [^D^d]6 [DB-]2!>)! |!pp!"^tranquillo" B4 (^d2 ^c2) |!p! (^c3 B ^G2 ^F2) | %23
!mp!"_cresc. e appassionato" (B2 ^c=d [_E_e]2 [E_B]e) | [_Ec_e]2 [Ec]2!<(! ([Geg]2 [Gdf]!<)![ce]) | %25
!ff! ([_Af_a]2 [G_eg][Fdf]) [_Ec_e]2"^molto rit."!>(! [Cc]2!>)! | %26
!pp! [CFc]2"_colla voce" ([=Ec]2 [DB]2 !breath![CA]2) |"_a tempo ma ben tranquillo" (^F4 G3 ^G) | %28
 (A4!>(! B2 c2)!>)! |!ppp! (^c4!pp! d2 e2 | [FAf]2) (.[Gg]2 .[=A=a]2 .[Bb]2) | %31
"_marcato dolcissimo" [egc'e']4!pp!!>(! [dgd']3 [cc'] | [Beb]6 [Aa]2!>)! |!pp! [Acea]8- | %34
 [Acea]4 [Gceg]4- | !fermata![Gceg]8 |] %36
V:4
 E4 ^F4 | =F4- F2 x2 | x6 (E2 | F6) D2 | D4 C4 | x8 | C4 C4 | x2 F4 F2 | x8 | x4 c4 | x8 | x8 | %12
 x (A=B^c dfAB) | x2 E2 E^F^GA | x8 | C4 C4 | x2 F4 F2 | x8 | x8 | x8 | x8 | z (E^FE-) E4 | %22
 ^D4 D4 | E4 x4 | x8 | x6 G^F- | x8 | C8 | [C^F]8 | [=F_A]8- | x8 | x8 | x8 | x8 | x8 | x8 |] %36
V:5
 z4 _E4 | (D4- [G,D]2) [F,B,D]2 | ([E,-_B,D]4 [E,A,^C]2) ([^C,A,-]2 | [D,A,]6) [F,=B,]2 | %4
 ([E,B,]4 [F,A,]4) |!ped! (D,,A,, ^F,4) [D,F,]2!ped-up! | (E,2 G,2 A,2 D,2) | %7
!ped! (G,,D, A,4)!ped-up! [G,B,]2 |!ped! (G,,D, A,2)!ped-up!!ped! (G,,E,) [G,FG]2!ped-up! | %9
 ([EG]4 [_E^F]4) | ([DG]4- [G,DG]2) [F,B,D]2 | %11
!ped! ([E,_B,]G) z2!ped-up!!ped! (E,A,) [A,E]2!ped-up! |!ped! (D,A,- [A,F]4)!ped-up! [=B,DF]2 | %13
 (E,DCB,) [A,C]4 |!ped! (D,,A,, ^F,4)!ped-up! [D,F,]2 | (E,2 G,2 A,2 D,2) | %16
!ped! (G,,D, A,4)!ped-up! [G,B,]2 |!ped! (^G,,E,CE)!ped-up!!ped! (A,,E, E2)!ped-up! | %18
!ped! (^A,,G,CE)!ped-up!!ped! (B,,G, E2)!ped-up! | %19
!ped! (C,E,B,A,)!ped-up!!ped! (^F,,E,) [CE]2!ped-up! | %20
 (B,,^F,B,A,[I:staff -1] ^F[I:staff +1]B,^A,=A,) | ([^G,B,]4 [=G,^A,]4 | [^F,=A,]4) [B,,A,]4 | %23
 [B,,^G,]4!ped! ([_B,,=G,]_B,) z2!ped-up! | (A,,^F,_A,,F,)!ped! G,,([G,_E][D=F]!ped-up![CE]) | %25
!ped! !arpeggio![G,,D,B,]([G,-F][G,_E])!ped-up![G,D]!ped! [_A,C](_A,,- [A,,_E,]2)!ped-up! | %26
!ped! (D,,=A,, ^F,4)!ped-up! [D,F,]2 | [G,,E,]8 | [G,,_E,]8 |!ped! !arpeggio![G,,D,B,]8-!ped-up! | %30
 [G,,D,B,]2 z2 [G,B,EG]4 |!ped! ([C,,G,,]C,E,G,) [G,E]4!ped-up! |!ped! z (C,^F,C) [F,CE]4!ped-up! | %33
!ped! z2 (.C,,2 .[G,,E,]2 .[E,C]2) | [CE]8!ped-up! | %35
!ped! !arpeggio!!fermata![C,,G,,E,G,CE]8!ped-up! |] %36
V:6
 x8 | x8 | x8 | x8 | x8 | x8 | G,,8 | x8 | x8 | x8 | x8 | x8 | x5 x x2 | E,4 x4 | x5 x x2 | G,,8 | %16
 x5 x x2 | x8 | x8 | x8 | x8 | x8 | x8 | x8 | x8 | x8 | x8 | x8 | x8 | x8 | x8 | x8 | x8 | x8 | %34
 x8 | x8 |] %36

